Numix-GalliumOS/32/categories/applications-photography.svg

<?xml version="1.0" encoding="UTF-8" standalone="no"?>
<svg
   xmlns:dc="http://purl.org/dc/elements/1.1/"
   xmlns:cc="http://creativecommons.org/ns#"
   xmlns:rdf="http://www.w3.org/1999/02/22-rdf-syntax-ns#"
   xmlns:svg="http://www.w3.org/2000/svg"
   xmlns="http://www.w3.org/2000/svg"
   xmlns:sodipodi="http://sodipodi.sourceforge.net/DTD/sodipodi-0.dtd"
   xmlns:inkscape="http://www.inkscape.org/namespaces/inkscape"
   width="32"
   height="32"
   viewBox="0 0 25.6 25.6"
   id="svg2"
   version="1.1"
   inkscape:version="0.91 r"
   sodipodi:docname="applications-photography.svg">
  <metadata
     id="metadata18">
    <rdf:RDF>
      <cc:Work
         rdf:about="">
        <dc:format>image/svg+xml</dc:format>
        <dc:type
           rdf:resource="http://purl.org/dc/dcmitype/StillImage" />
        <dc:title />
      </cc:Work>
    </rdf:RDF>
  </metadata>
  <defs
     id="defs16" />
  <sodipodi:namedview
     pagecolor="#ffffff"
     bordercolor="#666666"
     borderopacity="1"
     objecttolerance="10"
     gridtolerance="10"
     guidetolerance="10"
     inkscape:pageopacity="0"
     inkscape:pageshadow="2"
     inkscape:window-width="1680"
     inkscape:window-height="1026"
     id="namedview14"
     showgrid="true"
     inkscape:zoom="9.9368421"
     inkscape:cx="9.6435739"
     inkscape:cy="15.115444"
     inkscape:window-x="0"
     inkscape:window-y="24"
     inkscape:window-maximized="1"
     inkscape:current-layer="svg2">
    <inkscape:grid
       type="xygrid"
       id="grid4146" />
  </sodipodi:namedview>
  <path
     style="fill:none;stroke:#e08dc9;stroke-width:1.60000002;stroke-linecap:round;stroke-linejoin:round;stroke-miterlimit:4;stroke-dasharray:none"
     d="m 4.8597414,7.2 15.8805156,0 C 21.214595,7.2 21.6,7.5676765 21.6,8.0225591 l 0,9.5572379 C 21.6,18.032324 21.214595,18.4 20.740257,18.4 l -15.8805156,0 c -0.4743402,0 -0.8597416,-0.367676 -0.8597416,-0.820203 l 0,-9.5572379 C 3.9999998,7.5676765 4.3854012,7.2 4.8597414,7.2 Z"
     id="path4"
     inkscape:connector-curvature="0" />
  <path
     style="fill:#e08dc9"
     inkscape:connector-curvature="0"
     id="path8"
     d="m 6.1344559,5.6 2.1310875,0 C 8.5619646,5.6 8.8,5.9570521 8.8,6.4016845 8.8,6.8429467 8.5619646,7.2 8.2655434,7.2 l -2.1310875,0 C 5.8380348,7.2 5.6,6.8429467 5.6,6.4016845 5.6,5.9570521 5.8380348,5.6 6.1344559,5.6 Z" />
  <path
     style="fill:#e08dc9"
     inkscape:connector-curvature="0"
     id="path10"
     d="m 18.934831,8.8000001 0.532584,0 C 19.761797,8.8000001 20,9.0401121 20,9.3340814 l 0,0.5340807 C 20,10.162131 19.761797,10.4 19.467415,10.4 l -0.532584,0 C 18.638202,10.4 18.4,10.162131 18.4,9.8681621 l 0,-0.5340807 c 0,-0.2939693 0.238202,-0.5340813 0.534831,-0.5340813 z" />
  <path
     style="fill:none;stroke:#e08dc9;stroke-width:1.60000002;stroke-miterlimit:4;stroke-dasharray:none"
     d="M 16,12.800001 C 16,14.567876 14.567875,16 12.8,16 11.032124,16 9.6000002,14.567876 9.6000002,12.800001 9.6000002,11.032125 11.032124,9.6 12.8,9.6 c 1.767875,0 3.2,1.432125 3.2,3.200001 z"
     id="path12"
     inkscape:connector-curvature="0" />
</svg>

<svg xmlns="http://www.w3.org/2000/svg" width="32" height="32" viewBox="0 0 25.6 25.6">
 <path d="m 4.86 7.2 15.881 0 c 0.474 0 0.86 0.368 0.86 0.823 l 0 9.557 c 0 0.453 -0.385 0.82 -0.86 0.82 l -15.881 0 c -0.474 0 -0.86 -0.368 -0.86 -0.82 l 0 -9.557 c 0 -0.455 0.385 -0.823 0.86 -0.823" style="stroke-dasharray:none;fill:none;stroke-miterlimit:4;stroke:#e08dc9;stroke-linecap:round;stroke-linejoin:round;stroke-width:1.6"/>
 <path d="m 6.134 5.6 2.131 0 c 0.296 0 0.534 0.357 0.534 0.802 0 0.441 -0.238 0.798 -0.534 0.798 l -2.131 0 c -0.296 0 -0.534 -0.357 -0.534 -0.798 0 -0.445 0.238 -0.802 0.534 -0.802" style="fill:#e08dc9"/>
 <path d="m 18.935 8.8 0.533 0 c 0.294 0 0.533 0.24 0.533 0.534 l 0 0.534 c 0 0.294 -0.238 0.532 -0.533 0.532 l -0.533 0 c -0.297 0 -0.535 -0.238 -0.535 -0.532 l 0 -0.534 c 0 -0.294 0.238 -0.534 0.535 -0.534 z" style="fill:#e08dc9"/>
 <path d="m 16 12.8 c 0 1.768 -1.432 3.2 -3.2 3.2 -1.768 0 -3.2 -1.432 -3.2 -3.2 0 -1.768 1.432 -3.2 3.2 -3.2 c 1.768 0 3.2 1.432 3.2 3.2 z" style="stroke-dasharray:none;fill:none;stroke-miterlimit:4;stroke:#e08dc9;stroke-width:1.6"/>
</svg>
